X:1
T:Reel adaptogène
C:Suzie Blanchette
L:1/8
M:4/4
I:linebreak $
K:D
V:1 treble nm="Voice"
V:1
"Em" GEDE B,BAG |"D" FDA,D FBAF |"Em" GEGB e2 ee |"D" dBAG FBAF |"Em" GEDE B,BAG |"D" FDA,D FBAF | %6
"Em" GBee"D" dBAF |1"Em" GEED EBAF :|2"Em" GEED E2 AB |:"Em" e2 ee efge |"D" dAFA dAFd | %11
"Em" e2 ee efge |"D" fbab fedB |"Em" e2 ee efge |"D" dAFA dFAd |"Em" eBAG"D" FdAF |1 %16
"Em" GEED E2 AB :|2"Em" GEED EBAF |] %18
